src/img/icons/announcement.svg

<svg width="32" height="32" viewBox="0 0 32 32" fill="none" xmlns="http://www.w3.org/2000/svg">
<path d="M28.9036 16.6683H25.8111C25.5 16.6683 25.2395 16.5633 25.0298 16.3533C24.8197 16.1435 24.7147 15.8831 24.7147 15.572C24.7147 15.2608 24.8197 15.0004 25.0298 14.7906C25.2395 14.5806 25.5 14.4756 25.8111 14.4756H28.9036C29.2148 14.4756 29.4752 14.5806 29.685 14.7906C29.895 15.0004 30 15.2608 30 15.572C30 15.8831 29.895 16.1435 29.685 16.3533C29.4752 16.5633 29.2148 16.6683 28.9036 16.6683ZM22.8228 22.4623C23.0101 22.2055 23.2496 22.0574 23.5412 22.0179C23.8326 21.9787 24.1067 22.0528 24.3635 22.2401L26.8289 24.0926C27.0857 24.2802 27.2337 24.5197 27.2729 24.8111C27.3124 25.1025 27.2383 25.3766 27.0507 25.6334C26.8634 25.89 26.624 26.038 26.3326 26.0774C26.0412 26.1169 25.7671 26.0429 25.5103 25.8552L23.045 24.0027C22.7882 23.8154 22.6401 23.576 22.6009 23.2846C22.5614 22.9932 22.6354 22.7191 22.8228 22.4623ZM26.7726 6.99501L24.3072 8.84752C24.0504 9.03488 23.7764 9.10895 23.485 9.06972C23.1936 9.03025 22.9541 8.88212 22.7665 8.62532C22.5791 8.36877 22.5052 8.09467 22.5446 7.80304C22.5839 7.51164 22.7319 7.27227 22.9887 7.08491L25.4541 5.2324C25.7109 5.04504 25.9849 4.97098 26.2763 5.0102C26.5677 5.04967 26.8072 5.19768 26.9948 5.45423C27.1822 5.71103 27.2561 5.98512 27.2167 6.27652C27.1774 6.56815 27.0294 6.80765 26.7726 6.99501ZM6.13261 19.3391H4.64263C3.91366 19.3391 3.29104 19.0809 2.77477 18.5643C2.25826 18.0481 2 17.4254 2 16.6965V14.4474C2 13.7185 2.25826 13.0959 2.77477 12.5796C3.29104 12.0631 3.91366 11.8048 4.64263 11.8048H10.2934L14.8389 9.08653C15.2794 8.82218 15.7236 8.81987 16.1714 9.07959C16.6195 9.33906 16.8435 9.72084 16.8435 10.2249V20.919C16.8435 21.4231 16.6195 21.8049 16.1714 22.0643C15.7236 22.3241 15.2794 22.3217 14.8389 22.0574L10.2934 19.3391H8.32536V23.9494C8.32536 24.2605 8.22035 24.521 8.01034 24.7307C7.80056 24.9407 7.54011 25.0458 7.22899 25.0458C6.91786 25.0458 6.65741 24.9407 6.44763 24.7307C6.23762 24.521 6.13261 24.2605 6.13261 23.9494V19.3391ZM14.6507 19.3504V11.7935L10.9004 13.9976H4.64263C4.53032 13.9976 4.42726 14.0445 4.33346 14.1383C4.23965 14.2321 4.19275 14.3351 4.19275 14.4474V16.6965C4.19275 16.8088 4.23965 16.9119 4.33346 17.0057C4.42726 17.0995 4.53032 17.1464 4.64263 17.1464H10.9004L14.6507 19.3504ZM18.8674 20.1318V11.0121C19.4409 11.5313 19.9029 12.1854 20.2532 12.9743C20.6038 13.7634 20.7791 14.6293 20.7791 15.572C20.7791 16.5146 20.6038 17.3805 20.2532 18.1696C19.9029 18.9585 19.4409 19.6126 18.8674 20.1318Z" fill="#131212"/>
</svg>

<svg xmlns="http://www.w3.org/2000/svg" viewBox="0 0 32 32">
  <path fill="currentColor" d="M28.904 16.668H25.81a1.06 1.06 0 0 1-.781-.315 1.06 1.06 0 0 1-.315-.781c0-.311.105-.572.315-.781.21-.21.47-.315.781-.315h3.093c.31 0 .571.105.781.315.21.21.315.47.315.781 0 .311-.105.572-.315.781-.21.21-.47.315-.781.315Zm-6.081 5.794c.187-.256.427-.405.718-.444a1.1 1.1 0 0 1 .822.222l2.466 1.853c.257.187.405.427.444.718a1.1 1.1 0 0 1-.222.822 1.037 1.037 0 0 1-.718.444 1.101 1.101 0 0 1-.823-.222l-2.465-1.852a1.035 1.035 0 0 1-.444-.718c-.04-.292.034-.566.222-.823Zm3.95-15.467-2.466 1.853a1.11 1.11 0 0 1-.822.222 1.038 1.038 0 0 1-.718-.445 1.102 1.102 0 0 1-.222-.822c.039-.291.187-.53.444-.718l2.465-1.853c.257-.187.53-.261.822-.222.292.04.531.188.719.444.187.257.261.531.222.823-.04.291-.188.53-.444.718ZM6.133 19.339h-1.49a2.545 2.545 0 0 1-1.868-.775A2.545 2.545 0 0 1 2 16.697v-2.25c0-.728.258-1.351.775-1.867a2.545 2.545 0 0 1 1.868-.775h5.65l4.546-2.718c.44-.265.885-.267 1.332-.007.448.26.672.64.672 1.145v10.694c0 .504-.224.886-.672 1.145-.447.26-.892.258-1.332-.007l-4.546-2.718H8.325v4.61c0 .311-.105.572-.315.782-.21.21-.47.315-.781.315a1.06 1.06 0 0 1-.781-.315 1.06 1.06 0 0 1-.315-.782v-4.61Zm8.518.011v-7.557l-3.75 2.205H4.642a.43.43 0 0 0-.31.14.43.43 0 0 0-.14.31v2.248a.43.43 0 0 0 .14.31.43.43 0 0 0 .31.14H10.9l3.75 2.204Zm4.216.782v-9.12c.574.52 1.036 1.173 1.386 1.962.35.79.526 1.655.526 2.598 0 .943-.175 1.809-.526 2.598-.35.788-.812 1.443-1.386 1.962Z"/>
</svg>
